icons/reactjs.svg

<svg width="24" height="24" viewBox="0 0 24 24" fill="none" xmlns="http://www.w3.org/2000/svg">
<path d="M12 13.5208C11.6022 13.5208 11.2206 13.3605 10.9393 13.0753C10.658 12.7901 10.5 12.4033 10.5 12C10.5 11.5967 10.658 11.2099 10.9393 10.9247C11.2206 10.6395 11.6022 10.4792 12 10.4792C12.3978 10.4792 12.7794 10.6395 13.0607 10.9247C13.342 11.2099 13.5 11.5967 13.5 12C13.5 12.4033 13.342 12.7901 13.0607 13.0753C12.7794 13.3605 12.3978 13.5208 12 13.5208ZM11.472 16.5562C11.647 16.7691 11.823 16.9759 12 17.1736C12.177 16.9759 12.353 16.7701 12.528 16.5562C12.176 16.5638 11.824 16.5638 11.472 16.5562ZM9.477 16.4295C8.70906 16.3485 7.9462 16.2239 7.192 16.0564C7.117 16.4112 7.06 16.7559 7.022 17.0864C6.832 18.6914 7.097 19.6667 7.5 19.9019C7.903 20.1381 8.868 19.8826 10.145 18.9144C10.408 18.7147 10.673 18.4926 10.939 18.2503C10.4185 17.6716 9.9304 17.0636 9.477 16.4295ZM16.808 16.0564C16.091 16.2186 15.325 16.3443 14.523 16.4295C14.0696 17.0636 13.5815 17.6716 13.061 18.2503C13.327 18.4937 13.592 18.7147 13.855 18.9144C15.132 19.8826 16.097 20.1381 16.5 19.9019C16.903 19.6667 17.167 18.6914 16.979 17.0864C16.9377 16.7407 16.88 16.397 16.808 16.0564ZM18.258 15.664C18.835 18.3396 18.532 20.4696 17.25 21.2199C15.968 21.9701 13.997 21.1712 12 19.327C10.003 21.1712 8.032 21.9691 6.75 21.2189C5.468 20.4686 5.165 18.3396 5.741 15.663C3.167 14.8327 1.5 13.5005 1.5 12C1.5 10.4995 3.167 9.16834 5.741 8.33597C5.165 5.66044 5.468 3.53036 6.75 2.78012C8.032 2.02987 10.003 2.82878 12 4.67296C13.997 2.82878 15.968 2.03089 17.25 2.78113C18.532 3.53137 18.835 5.66044 18.259 8.33699C20.833 9.16732 22.5 10.4995 22.5 12C22.5 13.5005 20.833 14.8317 18.259 15.664H18.258ZM10.938 5.74966C10.6837 5.51628 10.4191 5.2947 10.145 5.08559C8.868 4.11737 7.903 3.86189 7.5 4.09811C7.097 4.33332 6.833 5.30864 7.021 6.91355C7.061 7.24508 7.117 7.58877 7.191 7.94362C7.94553 7.77606 8.70873 7.6515 9.477 7.57052C9.952 6.90848 10.442 6.29916 10.939 5.74966H10.938ZM14.523 7.57052C15.325 7.65568 16.091 7.78241 16.808 7.94362C16.883 7.58877 16.94 7.24406 16.978 6.91355C17.168 5.30864 16.903 4.33332 16.5 4.09811C16.097 3.86189 15.132 4.11737 13.855 5.08559C13.5806 5.29467 13.3156 5.51626 13.061 5.74966C13.558 6.29916 14.048 6.90848 14.523 7.57052ZM12.528 7.44379C12.353 7.23088 12.177 7.02406 12 6.82636C11.823 7.02406 11.647 7.22987 11.472 7.44379C11.824 7.43622 12.176 7.43622 12.528 7.44379ZM8.372 14.7414C8.18956 14.4364 8.01352 14.1274 7.844 13.8148C7.749 14.0753 7.661 14.3318 7.581 14.5863C7.838 14.6431 8.103 14.6948 8.372 14.7414ZM10.304 14.9787C11.4331 15.0637 12.5669 15.0637 13.696 14.9787C14.3332 14.0297 14.9001 13.034 15.392 12C14.9001 10.966 14.3332 9.97034 13.696 9.02133C12.5669 8.9363 11.4331 8.9363 10.304 9.02133C9.6668 9.97034 9.09991 10.966 8.608 12C9.09991 13.034 9.6668 14.0297 10.304 14.9787ZM16.156 10.1852C16.251 9.92466 16.339 9.66816 16.419 9.41369C16.1568 9.35601 15.8934 9.30429 15.629 9.25857C15.8111 9.56364 15.9868 9.8726 16.156 10.1852ZM6.13 9.80706C5.79 9.91858 5.468 10.0402 5.166 10.172C3.701 10.8087 3 11.5286 3 12C3 12.4714 3.7 13.1913 5.166 13.828C5.468 13.9598 5.79 14.0814 6.13 14.1929C6.352 13.4833 6.627 12.7472 6.955 12C6.63982 11.2852 6.36439 10.5531 6.13 9.80706ZM7.58 9.41369C7.661 9.66715 7.749 9.92466 7.844 10.1842C8.01353 9.87191 8.18957 9.5633 8.372 9.25857C8.102 9.30521 7.837 9.35691 7.58 9.41369ZM17.87 14.1929C18.21 14.0814 18.532 13.9598 18.834 13.828C20.299 13.1913 21 12.4714 21 12C21 11.5286 20.3 10.8087 18.834 10.172C18.5183 10.0357 18.1966 9.91389 17.87 9.80706C17.648 10.5167 17.373 11.2528 17.045 12C17.373 12.7472 17.648 13.4822 17.87 14.1929ZM16.42 14.5863C16.339 14.3329 16.251 14.0753 16.156 13.8158C15.9865 14.1281 15.8104 14.4367 15.628 14.7414C15.898 14.6948 16.163 14.6431 16.42 14.5863Z" fill="black"/>
</svg>

<svg
  width="24"
  height="24"
  viewBox="0 0 24 24"
  xmlns="http://www.w3.org/2000/svg"
>
  <path d="M12 13.52c-.398 0-.78-.16-1.06-.445a1.531 1.531 0 0 1 0-2.15 1.49 1.49 0 0 1 1.06-.446c.398 0 .78.16 1.06.446a1.531 1.531 0 0 1 0 2.15 1.49 1.49 0 0 1-1.06.446zm-.528 3.036c.175.213.351.42.528.618.177-.198.353-.404.528-.618-.352.008-.704.008-1.056 0zm-1.995-.127a20.418 20.418 0 0 1-2.285-.373c-.075.355-.132.7-.17 1.03-.19 1.605.075 2.58.478 2.816.403.236 1.368-.02 2.645-.988.263-.2.528-.421.794-.664a20.906 20.906 0 0 1-1.462-1.82zm7.331-.373c-.717.163-1.483.288-2.285.373a20.906 20.906 0 0 1-1.462 1.821c.266.244.531.465.794.664 1.277.969 2.242 1.224 2.645.988.403-.235.667-1.21.479-2.816-.041-.345-.099-.689-.171-1.03zm1.45-.392c.577 2.676.274 4.806-1.008 5.556s-3.253-.049-5.25-1.893c-1.997 1.844-3.968 2.642-5.25 1.892s-1.585-2.88-1.009-5.556C3.167 14.833 1.5 13.501 1.5 12c0-1.5 1.667-2.832 4.241-3.664C5.165 5.66 5.468 3.53 6.75 2.78s3.253.049 5.25 1.893c1.997-1.844 3.968-2.642 5.25-1.892s1.585 2.88 1.009 5.556c2.574.83 4.241 2.162 4.241 3.663 0 1.5-1.667 2.832-4.241 3.664h-.001zm-7.32-9.914a11.392 11.392 0 0 0-.793-.664C8.868 4.117 7.903 3.862 7.5 4.098c-.403.235-.667 1.21-.479 2.816.04.331.096.675.17 1.03a20.417 20.417 0 0 1 2.286-.373c.475-.663.965-1.272 1.462-1.821h-.001zm3.585 1.82c.802.086 1.568.212 2.285.374.075-.355.132-.7.17-1.03.19-1.605-.075-2.58-.478-2.816-.403-.236-1.368.02-2.645.988-.274.209-.54.43-.794.664.497.55.987 1.158 1.462 1.82zm-1.995-.126A19.29 19.29 0 0 0 12 6.826a18.24 18.24 0 0 0-.528.618c.352-.008.704-.008 1.056 0zM8.372 14.74a25.298 25.298 0 0 1-.528-.926c-.095.26-.183.517-.263.771.257.057.522.109.791.155zm1.932.238c1.13.085 2.263.085 3.392 0A23.298 23.298 0 0 0 15.392 12a23.299 23.299 0 0 0-1.696-2.979 22.584 22.584 0 0 0-3.392 0A23.3 23.3 0 0 0 8.608 12a23.3 23.3 0 0 0 1.696 2.979zm5.852-4.794c.095-.26.183-.517.263-.771a17.77 17.77 0 0 0-.79-.155c.182.305.358.614.527.926zM6.13 9.807c-.34.112-.662.233-.964.365C3.701 10.809 3 11.529 3 12c0 .471.7 1.191 2.166 1.828.302.132.624.253.964.365.222-.71.497-1.446.825-2.193a21.142 21.142 0 0 1-.825-2.193zm1.45-.393c.081.253.169.51.264.77.17-.312.346-.62.528-.925-.27.046-.535.098-.792.155zm10.29 4.779c.34-.112.662-.233.964-.365C20.299 13.191 21 12.471 21 12c0-.471-.7-1.191-2.166-1.828a11.278 11.278 0 0 0-.964-.365c-.222.71-.497 1.446-.825 2.193.328.747.603 1.482.825 2.193zm-1.45.393a19.626 19.626 0 0 0-.264-.77c-.17.312-.346.62-.528.925.27-.046.535-.098.792-.155z" />
</svg>
